X:33
T:Sanctuary, The
C:Enda Scahill
D:Pick it up-Enda Scahill
M:6/8
L:1/8
R:jig
K:Amaj
EFA ABc|ecA gaf|ecA ABc|BB/B/B BAF|
EFA ABc|ecA gaf|ecA ABc|BB/B/B BAF|
EFA ABc|ecA a/a/af|ecA ABc|BB/B/B BAF|
EFA ABc|ecA a/a/af |ecA ABc|BB/B/B Aaf|
ecA ff/f/f|ecA ff/f/f|ecA ABc|BB/B/B Baf|
ecA ff/f/f|ecA ff/f/f|ecA ABc|BeB Aaf|
ecA ff/f/f|ecA ff/f/f|ecA ABc|BB/B/B BAF|
EFA ABc|ecA a/a/af|ecA ABc|BB/B/B BAF||
